!!!XEN: Why?
!!!AGN: Pipe dance song
!!!COM: Anonymous
!!!CNT: Native American -- Ojibway
!!!TXO: Ojibway
!!!MLC: Waba'cing village, Red Lake reservation, northern Minnesota, U.S.A.
!!!MRD: 1909-1912///
!!!MPN: Odjib'we (Ojibway)
**kern
*MM192
*Imale
*k[b-e-a-d-g-]
*clefF4
*M2/4
=1
4f
4f
=2
*M3/4
4f
4d-
4f
=3
[2.d-
=4
2.d-]
=5
*M2/4
4.c
8d-
=6
4d-
4d-
=7
2d-
=8
[2A-
=9
2A-]
=10
4.d-
8d-
=11
4d-
4c
=12
2d-
=13
[2F
=14
2F]
=15
4.d-
8d-
=16
4d-
4c
=17
2d-
==
*-
!!!OCL: Frances Densmore
!!!YOR: Chippewa [i.e., Ojibway] Music--II, Bulletin 53 of the Bureau of American Ethnology, Smitsonian Institution
!!!ONM: 173
!!!PPG: 296
!!!PUB: published
!!!PPR: Government Printing Office
!!!PPP: Washington, D.C.
!!!PDT: 1912///
!!!EST: missing clef changes, text, drum tempo, and drum part
!!!YEC: Copyright 1998 Paul von Hippel
!!!YEM: Rights to all derivate electronic formats reserved.
!!!EFL: 42/42
